dist/intermediate-svg/score.svg

<?xml version="1.0" encoding="utf-8"?><svg width="11" height="14" fill="none" xmlns="http://www.w3.org/2000/svg" viewBox="0 0 11 14"><path d="M2 4.25v-.5c0-.15.1-.25.25-.25h2.5c.15 0 .25.1.25.25v.5c0 .15-.1.25-.25.25h-2.5C2.1 4.5 2 4.4 2 4.25zm0 2v-.5c0-.15.1-.25.25-.25h2.5c.15 0 .25.1.25.25v.5c0 .15-.1.25-.25.25h-2.5C2.1 6.5 2 6.4 2 6.25zm0 2v-.5c0-.15.1-.25.25-.25h2.5c.15 0 .25.1.25.25v.5c0 .15-.1.25-.25.25h-2.5C2.1 8.5 2 8.4 2 8.25zm0 2v-.5c0-.15.1-.25.25-.25h2.5c.15 0 .25.1.25.25v.5c0 .15-.1.25-.25.25h-2.5c-.15 0-.25-.1-.25-.25zm4-2.5c0-.6.45-1.1 1-1.2v-.3c0-.3.2-.5.5-.5s.5.2.5.5v.25c.3 0 .5.2.5.5s-.2.5-.5.5h-.75c-.15 0-.25.1-.25.25s.1.25.25.25h.25c.7 0 1.25.55 1.25 1.25 0 .5-.3.95-.75 1.15v.35c0 .3-.2.5-.5.5s-.5-.2-.5-.5v-.25h-.25c-.3 0-.5-.2-.5-.5s.2-.5.5-.5h.75c.15 0 .25-.1.25-.25S7.65 9 7.5 9h-.25C6.55 9 6 8.45 6 7.75zm4 5.75H1c-.55 0-1-.45-1-1v-10c0-.55.45-1 1-1h9c.55 0 1 .45 1 1v10c0 .55-.45 1-1 1zm-9-11v10h9v-10H1z" fill="#fff"/><path d="M2 3.25v-.5c0-.15.1-.25.25-.25h2.5c.15 0 .25.1.25.25v.5c0 .15-.1.25-.25.25h-2.5C2.1 3.5 2 3.4 2 3.25zm0 2v-.5c0-.15.1-.25.25-.25h2.5c.15 0 .25.1.25.25v.5c0 .15-.1.25-.25.25h-2.5C2.1 5.5 2 5.4 2 5.25zm0 2v-.5c0-.15.1-.25.25-.25h2.5c.15 0 .25.1.25.25v.5c0 .15-.1.25-.25.25h-2.5C2.1 7.5 2 7.4 2 7.25zm0 2v-.5c0-.15.1-.25.25-.25h2.5c.15 0 .25.1.25.25v.5c0 .15-.1.25-.25.25h-2.5C2.1 9.5 2 9.4 2 9.25zm4-2.5c0-.6.45-1.1 1-1.2v-.3c0-.3.2-.5.5-.5s.5.2.5.5v.25c.3 0 .5.2.5.5s-.2.5-.5.5h-.75c-.15 0-.25.1-.25.25s.1.25.25.25h.25c.7 0 1.25.55 1.25 1.25 0 .5-.3.95-.75 1.15v.35c0 .3-.2.5-.5.5s-.5-.2-.5-.5V9.5h-.25c-.3 0-.5-.2-.5-.5s.2-.5.5-.5h.75c.15 0 .25-.1.25-.25S7.65 8 7.5 8h-.25C6.55 8 6 7.45 6 6.75zm4 5.75H1c-.55 0-1-.45-1-1v-10c0-.55.45-1 1-1h9c.55 0 1 .45 1 1v10c0 .55-.45 1-1 1zm-9-11v10h9v-10H1z" fill="#1E6393"/></svg>

<?xml version="1.0" encoding="utf-8"?><svg width="11" height="14" fill="none" xmlns="http://www.w3.org/2000/svg" viewBox="0 0 11 14"><path d="M2 4.25V3.75C2 3.6 2.1 3.5 2.25 3.5H4.75C4.9 3.5 5 3.6 5 3.75V4.25C5 4.4 4.9 4.5 4.75 4.5H2.25C2.1 4.5 2 4.4 2 4.25ZM2 6.25V5.75C2 5.6 2.1 5.5 2.25 5.5H4.75C4.9 5.5 5 5.6 5 5.75V6.25C5 6.4 4.9 6.5 4.75 6.5H2.25C2.1 6.5 2 6.4 2 6.25ZM2 8.25V7.75C2 7.6 2.1 7.5 2.25 7.5H4.75C4.9 7.5 5 7.6 5 7.75V8.25C5 8.4 4.9 8.5 4.75 8.5H2.25C2.1 8.5 2 8.4 2 8.25ZM2 10.25V9.75C2 9.6 2.1 9.5 2.25 9.5H4.75C4.9 9.5 5 9.6 5 9.75V10.25C5 10.4 4.9 10.5 4.75 10.5H2.25C2.1 10.5 2 10.4 2 10.25ZM6 7.75C6 7.15 6.45 6.65005 7 6.55005V6.25C7 5.95 7.2 5.75 7.5 5.75C7.8 5.75 8 5.95 8 6.25V6.5C8.3 6.5 8.5 6.7 8.5 7C8.5 7.3 8.3 7.5 8 7.5H7.25C7.1 7.5 7 7.6 7 7.75C7 7.9 7.1 8 7.25 8H7.5C8.2 8 8.75 8.55 8.75 9.25C8.75 9.75 8.45 10.1999 8 10.3999V10.75C8 11.05 7.8 11.25 7.5 11.25C7.2 11.25 7 11.05 7 10.75V10.5H6.75C6.45 10.5 6.25 10.3 6.25 10C6.25 9.7 6.45 9.5 6.75 9.5H7.5C7.65 9.5 7.75 9.4 7.75 9.25C7.75 9.1 7.65 9 7.5 9H7.25C6.55 9 6 8.45 6 7.75ZM10 13.5H1C0.45 13.5 0 13.05 0 12.5V2.5C0 1.95 0.45 1.5 1 1.5H10C10.55 1.5 11 1.95 11 2.5V12.5C11 13.05 10.55 13.5 10 13.5ZM1 2.5V12.5H10V2.5H1Z" fill="#fff"/><path d="M2 3.25V2.75C2 2.6 2.1 2.5 2.25 2.5H4.75C4.9 2.5 5 2.6 5 2.75V3.25C5 3.4 4.9 3.5 4.75 3.5H2.25C2.1 3.5 2 3.4 2 3.25ZM2 5.25V4.75C2 4.6 2.1 4.5 2.25 4.5H4.75C4.9 4.5 5 4.6 5 4.75V5.25C5 5.4 4.9 5.5 4.75 5.5H2.25C2.1 5.5 2 5.4 2 5.25ZM2 7.25V6.75C2 6.6 2.1 6.5 2.25 6.5H4.75C4.9 6.5 5 6.6 5 6.75V7.25C5 7.4 4.9 7.5 4.75 7.5H2.25C2.1 7.5 2 7.4 2 7.25ZM2 9.25V8.75C2 8.6 2.1 8.5 2.25 8.5H4.75C4.9 8.5 5 8.6 5 8.75V9.25C5 9.4 4.9 9.5 4.75 9.5H2.25C2.1 9.5 2 9.4 2 9.25ZM6 6.75C6 6.15 6.45 5.65005 7 5.55005V5.25C7 4.95 7.2 4.75 7.5 4.75C7.8 4.75 8 4.95 8 5.25V5.5C8.3 5.5 8.5 5.7 8.5 6C8.5 6.3 8.3 6.5 8 6.5H7.25C7.1 6.5 7 6.6 7 6.75C7 6.9 7.1 7 7.25 7H7.5C8.2 7 8.75 7.55 8.75 8.25C8.75 8.75 8.45 9.1999 8 9.3999V9.75C8 10.05 7.8 10.25 7.5 10.25C7.2 10.25 7 10.05 7 9.75V9.5H6.75C6.45 9.5 6.25 9.3 6.25 9C6.25 8.7 6.45 8.5 6.75 8.5H7.5C7.65 8.5 7.75 8.4 7.75 8.25C7.75 8.1 7.65 8 7.5 8H7.25C6.55 8 6 7.45 6 6.75ZM10 12.5H1C0.45 12.5 0 12.05 0 11.5V1.5C0 0.95 0.45 0.5 1 0.5H10C10.55 0.5 11 0.95 11 1.5V11.5C11 12.05 10.55 12.5 10 12.5ZM1 1.5V11.5H10V1.5H1Z" fill="#1E6393"/></svg>
